X: 38432
T: Starry Night For A Ramble
R: jig
M: 6/8
K: Dmajor
|:e|f2 d A2 F|G3 B3|A2 d c2 d|e2 e ede|
f2 d A2 F|G3 B3|A2 d cde|d3 d2:|
|:f|g2 g gfe|f2 f fed|e2 e efg|a2 f a2 f|
g2 g gfe|fgf fed|e2 e edc|d3 d2:|

